X:16443
T:The Baker
T:Scott Skinner's
R:Reel
S:(Sean Keane)
H:
N:
D:
Z:Adrian Scahill
M:4/4
L:1/8
K:A
cAED CEAc|dFBA GBed|cAED CEAc|1 dfBg aAAd:|2 dfBg aAAg||\
aAAa fedc|BFBA GBeg|a2 A2 (3eee Aa|gebg aAAg|\
aAAa fedc|BFBA GBed|cAED CEAc|dfBg aAA2:||
